src/img/icons/icon-whatsapp.svg

<?xml version="1.0" encoding="iso-8859-1"?>
<!-- Generator: Adobe Illustrator 19.0.0, SVG Export Plug-In . SVG Version: 6.00 Build 0)  -->
<svg version="1.1" id="Capa_1" xmlns="http://www.w3.org/2000/svg" xmlns:xlink="http://www.w3.org/1999/xlink" x="0px" y="0px"
	 viewBox="0 0 512 512" style="enable-background:new 0 0 512 512;" xml:space="preserve">
<path style="fill:#4CAF50;" d="M256.064,0h-0.128l0,0C114.784,0,0,114.816,0,256c0,56,18.048,107.904,48.736,150.048l-31.904,95.104
	l98.4-31.456C155.712,496.512,204,512,256.064,512C397.216,512,512,397.152,512,256S397.216,0,256.064,0z"/>
<path style="fill:#FAFAFA;" d="M405.024,361.504c-6.176,17.44-30.688,31.904-50.24,36.128c-13.376,2.848-30.848,5.12-89.664-19.264
	C189.888,347.2,141.44,270.752,137.664,265.792c-3.616-4.96-30.4-40.48-30.4-77.216s18.656-54.624,26.176-62.304
	c6.176-6.304,16.384-9.184,26.176-9.184c3.168,0,6.016,0.16,8.576,0.288c7.52,0.32,11.296,0.768,16.256,12.64
	c6.176,14.88,21.216,51.616,23.008,55.392c1.824,3.776,3.648,8.896,1.088,13.856c-2.4,5.12-4.512,7.392-8.288,11.744
	c-3.776,4.352-7.36,7.68-11.136,12.352c-3.456,4.064-7.36,8.416-3.008,15.936c4.352,7.36,19.392,31.904,41.536,51.616
	c28.576,25.44,51.744,33.568,60.032,37.024c6.176,2.56,13.536,1.952,18.048-2.848c5.728-6.176,12.8-16.416,20-26.496
	c5.12-7.232,11.584-8.128,18.368-5.568c6.912,2.4,43.488,20.48,51.008,24.224c7.52,3.776,12.48,5.568,14.304,8.736
	C411.2,329.152,411.2,344.032,405.024,361.504z"/>
<g>
</g>
<g>
</g>
<g>
</g>
<g>
</g>
<g>
</g>
<g>
</g>
<g>
</g>
<g>
</g>
<g>
</g>
<g>
</g>
<g>
</g>
<g>
</g>
<g>
</g>
<g>
</g>
<g>
</g>
</svg>

<svg width="512" height="512" viewBox="0 0 512 512" fill="none" xmlns="http://www.w3.org/2000/svg">
<path d="M256.064 0H255.936C114.784 0 0 114.816 0 256C0 312 18.048 363.904 48.736 406.048L16.832 501.152L115.232 469.696C155.712 496.512 204 512 256.064 512C397.216 512 512 397.152 512 256C512 114.848 397.216 0 256.064 0Z" fill="#4CAF50"/>
<path d="M405.024 361.504C398.848 378.944 374.336 393.408 354.784 397.632C341.408 400.48 323.936 402.752 265.12 378.368C189.888 347.2 141.44 270.752 137.664 265.792C134.048 260.832 107.264 225.312 107.264 188.576C107.264 151.84 125.92 133.952 133.44 126.272C139.616 119.968 149.824 117.088 159.616 117.088C162.784 117.088 165.632 117.248 168.192 117.376C175.712 117.696 179.488 118.144 184.448 130.016C190.624 144.896 205.664 181.632 207.456 185.408C209.28 189.184 211.104 194.304 208.544 199.264C206.144 204.384 204.032 206.656 200.256 211.008C196.48 215.36 192.896 218.688 189.12 223.36C185.664 227.424 181.76 231.776 186.112 239.296C190.464 246.656 205.504 271.2 227.648 290.912C256.224 316.352 279.392 324.48 287.68 327.936C293.856 330.496 301.216 329.888 305.728 325.088C311.456 318.912 318.528 308.672 325.728 298.592C330.848 291.36 337.312 290.464 344.096 293.024C351.008 295.424 387.584 313.504 395.104 317.248C402.624 321.024 407.584 322.816 409.408 325.984C411.2 329.152 411.2 344.032 405.024 361.504Z" fill="#FAFAFA"/>
</svg>
